svg/fluentui-system-icons/ic_fluent_archive_48_filled.svg

<svg width="48" height="48" viewBox="0 0 48 48" fill="none" xmlns="http://www.w3.org/2000/svg">
<path d="M6.25 8.75C6.25 7.36929 7.36929 6.25 8.75 6.25H39.25C40.6307 6.25 41.75 7.36929 41.75 8.75V12.75C41.75 14.1307 40.6307 15.25 39.25 15.25H8.75C7.36929 15.25 6.25 14.1307 6.25 12.75V8.75ZM8.25 17.75H39.75V34.5C39.75 38.5041 36.5041 41.75 32.5 41.75H15.5C11.4959 41.75 8.25 38.5041 8.25 34.5V17.75ZM20.5 22.25C19.8096 22.25 19.25 22.8096 19.25 23.5C19.25 24.1904 19.8096 24.75 20.5 24.75H27.5C28.1904 24.75 28.75 24.1904 28.75 23.5C28.75 22.8096 28.1904 22.25 27.5 22.25H20.5Z" fill="#212121"/>
</svg>

<svg xmlns="http://www.w3.org/2000/svg" width="48" height="48"><path d="M6.25 8.75a2.5 2.5 0 0 1 2.5-2.5h30.5a2.5 2.5 0 0 1 2.5 2.5v4a2.5 2.5 0 0 1-2.5 2.5H8.75a2.5 2.5 0 0 1-2.5-2.5v-4Zm2 9h31.5V34.5a7.25 7.25 0 0 1-7.25 7.25h-17a7.25 7.25 0 0 1-7.25-7.25V17.75Zm12.25 4.5a1.25 1.25 0 1 0 0 2.5h7a1.25 1.25 0 1 0 0-2.5h-7Z"/></svg>
